source/img/basket.svg

<svg width="20" height="19" viewBox="0 0 20 19" fill="none" xmlns="http://www.w3.org/2000/svg">
<path opacity="0.2" d="M19.2271 7.23811H15.8454L12.5604 0.402108C12.3672 -9.09136e-06 11.9807 -0.100526 11.5942 0.100532C11.2077 0.301591 11.1111 0.703707 11.3043 1.10582L14.2995 7.23811H5.50723L8.50241 1.10582C8.69565 0.703707 8.50242 0.301591 8.21257 0.100532C7.82609 -0.100526 7.43962 0.10052 7.24638 0.402108L3.96133 7.23811H0.772936C0.386462 7.23811 0 7.53968 0 8.04233C0 8.44445 0.289844 8.84655 0.772936 8.84655H0.966184L1.83574 11.8624C1.64251 11.963 1.54587 12.164 1.54587 12.4656C1.54587 12.8677 1.83574 13.1693 2.22221 13.1693L3.86474 19H16.1353L17.7778 13.1693C18.1643 13.1693 18.4541 12.8677 18.4541 12.4656C18.4541 12.2645 18.3575 11.963 18.1643 11.8624L19.0338 8.84655H19.2271C19.6135 8.84655 20 8.54498 20 8.04233C20 7.53968 19.6135 7.23811 19.2271 7.23811ZM14.8792 17.3915H4.83092L3.67149 13.0688H16.1353L14.8792 17.3915ZM16.4251 11.5609H3.1884L2.41546 8.74605H17.1981L16.4251 11.5609Z" fill="black"/>
</svg>

<svg xmlns="http://www.w3.org/2000/svg" width="20" height="19"><path d="M19.23 7.24h-3.38L12.56.4c-.2-.4-.58-.5-.97-.3-.38.2-.48.6-.29 1l3 6.14H5.5l3-6.13c.2-.4 0-.8-.29-1-.38-.21-.77 0-.96.3L3.96 7.23H.77c-.38 0-.77.3-.77.8 0 .4.29.8.77.8h.2l.87 3.02c-.2.1-.3.3-.3.6 0 .4.3.7.68.7L3.86 19h12.28l1.64-5.83c.38 0 .67-.3.67-.7 0-.2-.1-.5-.29-.6l.87-3.02h.2c.38 0 .77-.3.77-.8 0-.51-.39-.81-.77-.81Zm-4.35 10.15H4.83l-1.16-4.32h12.47l-1.26 4.32Zm1.55-5.83H3.19l-.77-2.81H17.2l-.77 2.81Z"/></svg>
